X:1
T:Käppadansen (Soldier's Joy)
C:Trad
R:Polka
Z:Patrik Månsson, 2017-01-07
O:Skåne
B:Nedtecknad efter Per-Axel Karlsson på durspel
M:4/4
L:1/8
Q:1/4=160
K:C
|: "C" GECE GECE | G2cc c2c2 | GECE GECE | "C" E2 "G" DD D2D2 |
|  "C" GECE GECE | G2cc c2d2 | "C" egec "G" dfdB |1 "C" c2cc c2z2 :|2 "C" c2cc c2d2|]
|: "C" ecGc egfe | "G" dBGB dfed | "C" ecGc egfe | "G" dcBA G2 z2 |
|  "C" ecGc egfe | "G" dBGB dfed | "C" egec "G" dfdB |1 "C" c2cc c2d2 :|2 "C" c2c2 c2z2 |]

